icons/op-download-arrow-24.svg

<svg width="24" height="24" viewBox="0 0 24 24" fill="none" xmlns="http://www.w3.org/2000/svg">
<path fill-rule="evenodd" clip-rule="evenodd" d="M5.875 18.3158H18.125C18.3571 18.3158 18.5796 18.4045 18.7437 18.5624C18.9078 18.7204 19 18.9346 19 19.1579C19 19.3812 18.9078 19.5954 18.7437 19.7534C18.5796 19.9113 18.3571 20 18.125 20H5.875C5.64294 20 5.42038 19.9113 5.25628 19.7534C5.09219 19.5954 5 19.3812 5 19.1579C5 18.9346 5.09219 18.7204 5.25628 18.5624C5.42038 18.4045 5.64294 18.3158 5.875 18.3158ZM12.875 13.4105L15.7126 10.6804L16.9499 11.8712L12 16.6349L7.05012 11.8712L8.28737 10.6804L11.125 13.4105V4H12.875V13.4105Z" fill="black"/>
</svg>

<svg xmlns="http://www.w3.org/2000/svg" width="24" height="24" viewBox="0 0 24 24"><path d="m12.875 13.41 2.838-2.73 1.237 1.191L12 16.635l-4.95-4.764 1.237-1.191 2.838 2.73V4h1.75Zm-7 4.906h12.25c.232 0 .455.088.619.246a.828.828 0 0 1 .256.596.826.826 0 0 1-.256.595.893.893 0 0 1-.619.247H5.875a.893.893 0 0 1-.619-.247.826.826 0 0 1-.256-.595c0-.223.092-.438.256-.596a.892.892 0 0 1 .619-.246Z"/></svg>
